public/images/2019-hero.svg

<svg fill="none" height="431" viewBox="0 0 567 431" width="567" xmlns="http://www.w3.org/2000/svg"><path d="m141.651 310.583c-3.222-4.812-6.205-9.798-8.932-14.941" stroke="#1f252a" stroke-linecap="round" stroke-linejoin="round" stroke-width="4.252"/><path d="m397.102 342.277c-30.165 27.272-70.154 43.88-114.022 43.88-42.459 0-81.283-15.558-111.084-41.283" stroke="#1f252a" stroke-linecap="round" stroke-linejoin="round" stroke-width="4.252"/><path d="m283.078 46c93.932 0 170.078 76.147 170.078 170.079 0 36.897-11.748 71.049-31.709 98.921" stroke="#1f252a" stroke-linecap="round" stroke-linejoin="round" stroke-width="4.252"/><path d="m113 357.813h340.157" stroke="#1f252a" stroke-linecap="round" stroke-linejoin="round" stroke-width="4.252"/><path d="m132.682 136.585c25.455-48.0586 73.27-82.4536 129.584-89.3246" stroke="#1f252a" stroke-linecap="round" stroke-linejoin="round" stroke-width="4.252"/><path d="m276.734 173.562c0-15.655 12.691-28.347 28.346-28.347s28.347 12.692 28.347 28.347c0 13.308-9.171 24.474-21.538 27.523" stroke="#1f252a" stroke-linecap="round" stroke-miterlimit="10" stroke-width="4.252"/><path d="m366.426 179.776c7.391-3.53 15.666-5.506 24.402-5.506 8.846 0 17.219 2.026 24.68 5.639" stroke="#1f252a" stroke-linecap="round" stroke-miterlimit="10" stroke-width="4.252"/><path d="m443 208.743c2.91 6.823 4.521 14.334 4.521 22.221 0 31.31-25.383 56.692-56.694 56.692-14.883 0-28.427-5.735-38.542-15.116" stroke="#1f252a" stroke-linecap="round" stroke-miterlimit="10" stroke-width="4.252"/><path d="m339.733 198.864c-3.588-7.439-5.598-15.781-5.598-24.593 0-31.311 25.382-56.693 56.693-56.693 31.31 0 56.693 25.382 56.693 56.693" stroke="#1f252a" stroke-linecap="round" stroke-miterlimit="10" stroke-width="4.252"/><path d="m364.977 180.495c7.751-3.979 16.539-6.224 25.852-6.224 8.845 0 17.218 2.026 24.679 5.639" stroke="#1f252a" stroke-linecap="round" stroke-miterlimit="10" stroke-width="4.252"/><path d="m443.961 211.142c2.303 6.17 3.562 12.848 3.562 19.822 0 31.31-25.383 56.692-56.694 56.692-31.31 0-56.692-25.382-56.692-56.692 0-7.887 1.61-15.398 4.519-22.221" stroke="#1f252a" stroke-linecap="round" stroke-miterlimit="10" stroke-width="4.252"/><g fill="#1f252a"><path d="m362.492 179.927c-.47-2.046-.718-4.177-.718-6.365 0-15.656 12.692-28.347 28.347-28.347s28.346 12.691 28.346 28.347c0 1.781-.164 3.524-.479 5.214 8.978 4.682 16.596 11.612 22.108 20.044 3.843-7.589 6.009-16.171 6.009-25.258 0-30.92-25.065-55.985-55.984-55.985-30.92 0-55.984 25.065-55.984 55.985 0 9.761 2.498 18.94 6.89 26.93h.001c5.221-8.593 12.635-15.708 21.465-20.565"/><path d="m216.127 253.074v-93.556c0-.89.722-1.612 1.613-1.612h29.034c.892 0 1.614.722 1.614 1.612v93.665z"/><path d="m153.109 286.948h61.515c.962 0 1.885-.383 2.566-1.063l30.135-30.135c.31-.311.558-.671.737-1.063h-94.843z"/><path d="m151.606 286.622c-.392-.179-.752-.427-1.062-.737l-30.135-30.135c-.681-.681-1.063-1.604-1.063-2.566v-93.775c0-.963.382-1.886 1.063-2.566l29.132-29.133c.762-.762 2.065-.222 2.065.856z"/><path d="m216.127 118.081v27.727c0 .891.722 1.613 1.613 1.613h27.727c1.077 0 1.618-1.303.855-2.066l-28.13-28.129c-.762-.763-2.065-.223-2.065.855z"/><path d="m151.606 286.622c-.392-.179-.752-.427-1.062-.737l-30.135-30.135c-.681-.681-1.063-1.604-1.063-2.566v-93.775c0-.963.382-1.886 1.063-2.566l29.132-29.133c.762-.762 2.065-.222 2.065.856z"/><path d="m153.109 286.948h61.515c.962 0 1.885-.383 2.566-1.063l30.135-30.135c.31-.311.558-.671.737-1.063h-94.843z"/><path d="m216.127 253.074v-93.556c0-.89.722-1.612 1.613-1.612h29.034c.892 0 1.614.722 1.614 1.612v93.665z"/><path d="m181.131 343.102v-16.416c0-5.994-2.269-7.614-5.617-7.614-3.996 0-6.049 2.16-6.049 9.288v14.742h-7.181v-16.416c0-5.887-2.052-7.614-5.833-7.614-4.158 0-5.831 2.214-5.831 9.288v14.742h-7.182v-29.916h6.589v2.808c2.105-2.538 4.265-3.51 7.775-3.51 4.104 0 6.749 1.403 8.802 4.643 2.429-3.24 5.4-4.643 9.611-4.643 7.886 0 12.097 4.374 12.097 13.338v17.28z"/><path d="m208.776 319.071c-4.266 0-7.182 2.105-8.316 5.94h16.578c-.918-3.835-3.834-5.94-8.262-5.94zm15.066 12.258h-23.166c.864 3.618 3.996 5.887 8.262 5.887 2.97 0 4.752-.811 6.588-2.971h7.831c-1.998 6.156-8.209 9.558-14.257 9.558-9.126 0-16.2-6.804-16.2-15.552 0-8.802 6.966-15.768 15.768-15.768 8.91 0 15.444 6.804 15.444 16.092 0 1.08-.054 1.728-.27 2.754z"/><path d="m228.756 303.195h7.182v39.906h-7.182z"/><path d="m257.161 318.693c-5.022 0-8.694 3.834-8.694 9.234 0 5.454 3.672 9.288 8.856 9.288 5.13 0 8.694-3.78 8.694-9.234 0-5.347-3.726-9.288-8.856-9.288zm1.512 25.11c-4.428 0-7.29-1.242-10.368-4.536v3.834h-6.588v-39.906h7.182v12.744c2.754-2.754 5.4-3.834 9.288-3.834 8.586 0 15.066 6.804 15.066 15.822s-6.156 15.876-14.58 15.876z"/><path d="m291.935 319.071c-4.697 0-8.64 4.05-8.64 8.964 0 5.13 3.834 9.181 8.695 9.181 4.752 0 8.639-4.051 8.639-9.073 0-4.968-3.887-9.072-8.694-9.072zm0 24.732c-8.748 0-15.876-7.02-15.876-15.66 0-8.586 7.128-15.66 15.822-15.66 9.019 0 15.985 6.966 15.985 15.876 0 8.424-7.237 15.444-15.931 15.444z"/><path d="m331.896 343.101v-2.862c-2.7 2.646-4.969 3.564-8.587 3.564-6.966 0-11.393-4.05-11.393-14.58v-16.038h7.181v14.634c0 7.938 2.214 9.396 5.67 9.396 2.431 0 4.374-1.026 5.454-2.754.811-1.35 1.135-3.186 1.135-7.182v-14.094h7.182v29.916z"/><path d="m351.496 326.47v16.632h-7.182v-29.916h6.588v2.916c1.89-2.755 3.403-3.618 6.481-3.618h.54v6.912c-4.321.107-6.427 2.429-6.427 7.074z"/><path d="m380.981 343.102v-14.634c0-7.992-2.16-9.396-5.725-9.396-2.267 0-4.157.971-5.292 2.754-.918 1.458-1.187 3.186-1.187 7.182v14.094h-7.183v-29.916h6.643v2.861c2.645-2.538 5.021-3.563 8.424-3.563 4.158 0 7.398 1.512 9.341 4.319 1.621 2.322 2.161 4.914 2.161 10.261v16.038z"/><path d="m408.573 319.071c-4.266 0-7.182 2.105-8.315 5.94h16.578c-.918-3.835-3.834-5.94-8.263-5.94zm15.066 12.258h-23.166c.865 3.618 3.996 5.887 8.262 5.887 2.971 0 4.752-.811 6.589-2.971h7.83c-1.998 6.156-8.209 9.558-14.257 9.558-9.126 0-16.2-6.804-16.2-15.552 0-8.802 6.966-15.768 15.769-15.768 8.91 0 15.444 6.804 15.444 16.092 0 1.08-.055 1.728-.271 2.754z"/><path d="m305.081 147.341v52.441h-.038c-14.482 0-26.221-11.739-26.221-26.22 0-14.482 11.739-26.221 26.221-26.221z"/><path d="m388.51 233.045-26.739 46.314-.001.001c8.34 4.826 18.023 7.587 28.351 7.587l39.554-68.509v.001c-10.361 9.119-23.957 14.651-38.846 14.651-.776 0-1.549-.016-2.319-.045z"/><path d="m344.193 202.617c4.774-7.837 11.469-14.377 19.43-18.965 4.066 10.673 14.396 18.256 26.498 18.256 12.348 0 22.852-7.896 26.739-18.915h-.002c8.48 4.61 15.6 11.403 20.606 19.624-9.576 15.722-26.879 26.221-46.635 26.221-19.755 0-37.059-10.498-46.635-26.221z"/><path d="m305.08 204.034c-12.91 0-23.945-8.028-28.385-19.365h.003l.022 98.244c0 1.344.942 2.5 2.256 2.78 3.841.822 7.827 1.254 11.913 1.254 4.094 0 8.087-.434 11.935-1.258 1.314-.282 2.255-1.438 2.255-2.781z"/></g></svg>

<svg width="567" height="431" viewBox="0 0 567 431" fill="none" xmlns="http://www.w3.org/2000/svg">
<path d="M141.651 310.583C138.429 305.771 135.446 300.785 132.719 295.642" stroke="#1F252A" stroke-width="4.252" stroke-linecap="round" stroke-linejoin="round"/>
<path d="M397.102 342.277C366.937 369.549 326.948 386.157 283.08 386.157C240.621 386.157 201.797 370.599 171.996 344.874" stroke="#1F252A" stroke-width="4.252" stroke-linecap="round" stroke-linejoin="round"/>
<path d="M283.078 46C377.01 46 453.156 122.147 453.156 216.079C453.156 252.976 441.408 287.128 421.447 315" stroke="#1F252A" stroke-width="4.252" stroke-linecap="round" stroke-linejoin="round"/>
<path d="M113 357.813H453.157" stroke="#1F252A" stroke-width="4.252" stroke-linecap="round" stroke-linejoin="round"/>
<path d="M132.682 136.585C158.137 88.5264 205.952 54.1314 262.266 47.2604" stroke="#1F252A" stroke-width="4.252" stroke-linecap="round" stroke-linejoin="round"/>
<path d="M276.734 173.562C276.734 157.907 289.425 145.215 305.08 145.215C320.735 145.215 333.427 157.907 333.427 173.562C333.427 186.87 324.256 198.036 311.889 201.085" stroke="#1F252A" stroke-width="4.252" stroke-miterlimit="10" stroke-linecap="round"/>
<path d="M366.426 179.776C373.817 176.246 382.092 174.27 390.828 174.27C399.674 174.27 408.047 176.296 415.508 179.909" stroke="#1F252A" stroke-width="4.252" stroke-miterlimit="10" stroke-linecap="round"/>
<path d="M443 208.743C445.91 215.566 447.521 223.077 447.521 230.964C447.521 262.274 422.138 287.656 390.827 287.656C375.944 287.656 362.4 281.921 352.285 272.54" stroke="#1F252A" stroke-width="4.252" stroke-miterlimit="10" stroke-linecap="round"/>
<path d="M339.733 198.864C336.145 191.425 334.135 183.083 334.135 174.271C334.135 142.96 359.517 117.578 390.828 117.578C422.138 117.578 447.521 142.96 447.521 174.271" stroke="#1F252A" stroke-width="4.252" stroke-miterlimit="10" stroke-linecap="round"/>
<path d="M364.977 180.495C372.728 176.516 381.516 174.271 390.829 174.271C399.674 174.271 408.047 176.297 415.508 179.91" stroke="#1F252A" stroke-width="4.252" stroke-miterlimit="10" stroke-linecap="round"/>
<path d="M443.961 211.142C446.264 217.312 447.523 223.99 447.523 230.964C447.523 262.274 422.14 287.656 390.829 287.656C359.519 287.656 334.137 262.274 334.137 230.964C334.137 223.077 335.747 215.566 338.656 208.743" stroke="#1F252A" stroke-width="4.252" stroke-miterlimit="10" stroke-linecap="round"/>
<path d="M362.492 179.927C362.022 177.881 361.774 175.75 361.774 173.562C361.774 157.906 374.466 145.215 390.121 145.215C405.776 145.215 418.467 157.906 418.467 173.562C418.467 175.343 418.303 177.086 417.988 178.776C426.966 183.458 434.584 190.388 440.096 198.82C443.939 191.231 446.105 182.649 446.105 173.562C446.105 142.642 421.04 117.577 390.121 117.577C359.201 117.577 334.137 142.642 334.137 173.562C334.137 183.323 336.635 192.502 341.027 200.492H341.028C346.249 191.899 353.663 184.784 362.493 179.927" fill="#1F252A"/>
<path d="M216.127 253.074V159.518C216.127 158.628 216.849 157.906 217.74 157.906H246.774C247.666 157.906 248.388 158.628 248.388 159.518V253.183L216.127 253.074Z" fill="#1F252A"/>
<path d="M153.109 286.948H214.624C215.586 286.948 216.509 286.565 217.19 285.885L247.325 255.75C247.635 255.439 247.883 255.079 248.062 254.687H153.219L153.109 286.948Z" fill="#1F252A"/>
<path d="M151.606 286.622C151.214 286.443 150.854 286.195 150.544 285.885L120.409 255.75C119.728 255.069 119.346 254.146 119.346 253.184V159.409C119.346 158.446 119.728 157.523 120.409 156.843L149.541 127.71C150.303 126.948 151.606 127.488 151.606 128.566V286.622Z" fill="#1F252A"/>
<path d="M216.127 118.081V145.808C216.127 146.699 216.849 147.421 217.74 147.421H245.467C246.544 147.421 247.085 146.118 246.322 145.355L218.192 117.226C217.43 116.463 216.127 117.003 216.127 118.081Z" fill="#1F252A"/>
<path d="M151.606 286.622C151.214 286.443 150.854 286.195 150.544 285.885L120.409 255.75C119.728 255.069 119.346 254.146 119.346 253.184V159.409C119.346 158.446 119.728 157.523 120.409 156.843L149.541 127.71C150.303 126.948 151.606 127.488 151.606 128.566V286.622Z" fill="#1F252A"/>
<path d="M153.109 286.948H214.624C215.586 286.948 216.509 286.565 217.19 285.885L247.325 255.75C247.635 255.439 247.883 255.079 248.062 254.687H153.219L153.109 286.948Z" fill="#1F252A"/>
<path d="M216.127 253.074V159.518C216.127 158.628 216.849 157.906 217.74 157.906H246.774C247.666 157.906 248.388 158.628 248.388 159.518V253.183L216.127 253.074Z" fill="#1F252A"/>
<path d="M181.131 343.102V326.686C181.131 320.692 178.862 319.072 175.514 319.072C171.518 319.072 169.465 321.232 169.465 328.36V343.102H162.284V326.686C162.284 320.799 160.232 319.072 156.451 319.072C152.293 319.072 150.62 321.286 150.62 328.36V343.102H143.438V313.186H150.027V315.994C152.132 313.456 154.292 312.484 157.802 312.484C161.906 312.484 164.551 313.887 166.604 317.127C169.033 313.887 172.004 312.484 176.215 312.484C184.101 312.484 188.312 316.858 188.312 325.822V343.102H181.131Z" fill="#1F252A"/>
<path d="M208.776 319.071C204.51 319.071 201.594 321.176 200.46 325.011H217.038C216.12 321.176 213.204 319.071 208.776 319.071ZM223.842 331.329H200.676C201.54 334.947 204.672 337.216 208.938 337.216C211.908 337.216 213.69 336.405 215.526 334.245H223.357C221.359 340.401 215.148 343.803 209.1 343.803C199.974 343.803 192.9 336.999 192.9 328.251C192.9 319.449 199.866 312.483 208.668 312.483C217.578 312.483 224.112 319.287 224.112 328.575C224.112 329.655 224.058 330.303 223.842 331.329Z" fill="#1F252A"/>
<path d="M228.756 303.195H235.938V343.101H228.756V303.195Z" fill="#1F252A"/>
<path d="M257.161 318.693C252.139 318.693 248.467 322.527 248.467 327.927C248.467 333.381 252.139 337.215 257.323 337.215C262.453 337.215 266.017 333.435 266.017 327.981C266.017 322.634 262.291 318.693 257.161 318.693ZM258.673 343.803C254.245 343.803 251.383 342.561 248.305 339.267V343.101H241.717V303.195H248.899V315.939C251.653 313.185 254.299 312.105 258.187 312.105C266.773 312.105 273.253 318.909 273.253 327.927C273.253 336.945 267.097 343.803 258.673 343.803Z" fill="#1F252A"/>
<path d="M291.935 319.071C287.238 319.071 283.295 323.121 283.295 328.035C283.295 333.165 287.129 337.216 291.99 337.216C296.742 337.216 300.629 333.165 300.629 328.143C300.629 323.175 296.742 319.071 291.935 319.071ZM291.935 343.803C283.187 343.803 276.059 336.783 276.059 328.143C276.059 319.557 283.187 312.483 291.881 312.483C300.9 312.483 307.866 319.449 307.866 328.359C307.866 336.783 300.629 343.803 291.935 343.803Z" fill="#1F252A"/>
<path d="M331.896 343.101V340.239C329.196 342.885 326.927 343.803 323.309 343.803C316.343 343.803 311.916 339.753 311.916 329.223V313.185H319.097V327.819C319.097 335.757 321.311 337.215 324.767 337.215C327.198 337.215 329.141 336.189 330.221 334.461C331.032 333.111 331.356 331.275 331.356 327.279V313.185H338.538V343.101H331.896Z" fill="#1F252A"/>
<path d="M351.496 326.47V343.102H344.314V313.186H350.902V316.102C352.792 313.347 354.305 312.484 357.383 312.484H357.923V319.396C353.602 319.503 351.496 321.825 351.496 326.47Z" fill="#1F252A"/>
<path d="M380.981 343.102V328.468C380.981 320.476 378.821 319.072 375.256 319.072C372.989 319.072 371.099 320.043 369.964 321.826C369.046 323.284 368.777 325.012 368.777 329.008V343.102H361.594V313.186H368.237V316.047C370.882 313.509 373.258 312.484 376.661 312.484C380.819 312.484 384.059 313.996 386.002 316.803C387.623 319.125 388.163 321.717 388.163 327.064V343.102H380.981Z" fill="#1F252A"/>
<path d="M408.573 319.071C404.307 319.071 401.391 321.176 400.258 325.011H416.836C415.918 321.176 413.002 319.071 408.573 319.071ZM423.639 331.329H400.473C401.338 334.947 404.469 337.216 408.735 337.216C411.706 337.216 413.487 336.405 415.324 334.245H423.154C421.156 340.401 414.945 343.803 408.897 343.803C399.771 343.803 392.697 336.999 392.697 328.251C392.697 319.449 399.663 312.483 408.466 312.483C417.376 312.483 423.91 319.287 423.91 328.575C423.91 329.655 423.855 330.303 423.639 331.329Z" fill="#1F252A"/>
<path d="M305.081 147.341V199.782H305.043C290.561 199.782 278.822 188.043 278.822 173.562C278.822 159.08 290.561 147.341 305.043 147.341H305.081Z" fill="#1F252A"/>
<path d="M388.51 233.045L361.771 279.359L361.77 279.36C370.11 284.186 379.793 286.947 390.121 286.947L429.675 218.438V218.439C419.314 227.558 405.718 233.09 390.829 233.09C390.053 233.09 389.28 233.074 388.51 233.045Z" fill="#1F252A"/>
<path d="M344.193 202.617C348.967 194.78 355.662 188.24 363.623 183.652C367.689 194.325 378.019 201.908 390.121 201.908C402.469 201.908 412.973 194.012 416.86 182.993H416.858C425.338 187.603 432.458 194.396 437.464 202.617C427.888 218.339 410.585 228.838 390.829 228.838C371.074 228.838 353.77 218.34 344.194 202.617H344.193Z" fill="#1F252A"/>
<path d="M305.08 204.034C292.17 204.034 281.135 196.006 276.695 184.669H276.698L276.72 282.913C276.72 284.257 277.662 285.413 278.976 285.693C282.817 286.515 286.803 286.947 290.889 286.947C294.983 286.947 298.976 286.513 302.824 285.689C304.138 285.407 305.079 284.251 305.079 282.908L305.08 204.034Z" fill="#1F252A"/>
</svg>
